X: 08116
T: UDELL'S REEL
C: Bob McQuillen 20 Nov 90
B: Bob's Note Book 8 #116
%R: reel
Z: 2021 John Chambers <jc:trillian.mit.edu>
M: C
L: 1/8
K: D
FE \
| DFAF GBAG | FAdf edcd | edfd gfed | cedB AGFE |
| DFAF GBAG | FAdf edcd | Adfa gfed | Addc d2 :|
|: fe \
| dfaf bafd | fafd edBA | dfaf bafd | gfed egfe |
| dfaf bafe | defd edBd | fedA BdAg | fedc d2 :|
%%begintext align
%% Don Udell lived
%% in Morgantown, WV, where he kept 36 pianos on the U. of W.V.
%% campus tuned and properly maintained. He was a central figure
%% at Augusta each summer with his cheer and his guitar. Legally
%% blind, he displayed his great sense of humour with his T-Shirts, one of
%% which reminded us that "You don't have to be blind to be a piano tuner!"
%% He will be greatly missed by all of us who loved him.
%%endtext

%%sep 1 1 500

%%sep 1 1 500

